!!!OTL: Der schwatzhafte Junggeselle Khatrina Khatriina tu raine Mogd.
!!!ARE: Europa, Osteuropa, Ungarn
!!!YOR: 6, S. 312
!!    ????
!!!SCT: Q1139T
!!!YEM: Copyright 1995, estate of Helmut Schaffrath.
**kern
*ICvox
*Ivox
*M3/4
*k[f#]
*G:
{4d
=1
4g
4f#
4e
=2
2d
4g
=3
4.a
8b
8a
8f#
=4
2g}
{4d
=5
4g
4f#
4e
=6
2d
4g
=7
4.a
8b
8a
8f#
=8
2g}
{8b
8b
=9
4b
4b
4b
=10
4b
4a
4dd
=11
2cc
4b
=12
2a}
{4g
=13
4f#
4a
4a
=14
4a
4g
4a
=15
2b
8a
8f#
=16
2g}
==
!!!AGN: Legenden - Lied, geistlich
!! Melodievergleich zu Q0139 ff., anderes Lied.
!!!ONB: ESAC (Essen Associative Code) Database: BALLADE
!!!AMT: simple triple
!!!AIN: vox
!!!EED: Helmut Schaffrath
!!!EEV: 1.0
*-
